X: 7
T: Someron Masurkka
O: trad Finland
Z: John Chambers <jc@trillian.mit.edu>
B: Pelimannis\"avelmi\a v.1, Pelimannikilta ry, (Fazer 1971)
M: 3/4
L: 1/8
K: Am
|: "Am"A>E EA Ac | e2 d2 c2 \
|1,3 "E7"B>^G GB Bd | d2 c2 B2 \
:|2,4 "E7"B>^G GB Bd | "Am"c2 A4 :|
|: "Am"A>^G AB cd | e2 e2 c'2 \
| "E7"c'2 b2 a2 | "Am"a2 a4 \
| "Dm"d>^c de fg | f2 "Am"e4 \
| "E7"e>d dc cB | "Am"A2 A4 :|
%%sep 1 1 10cm
